public/images/instagram.svg

<svg fill="none" height="800" viewBox="0 0 24 24" width="800" xmlns="http://www.w3.org/2000/svg"><path d="m3.06167 7.24464c.04677-1.022.20679-1.68113.4232-2.24062l.00291-.00773c.21445-.56934.5504-1.0851.98446-1.5114l.00609-.00598.00598-.00609c.42665-.43462.9426-.77024 1.51144-.98412l.00981-.00375c.55822-.21709 1.21606-.37652 2.23891-.42328m-5.1828 5.18297c-.04917 1.09195-.0617 1.43044-.0617 4.26166 0 2.8318.01184 3.1695.06167 4.2617m.00003-8.52336v.27544m.427 10.49672c.21388.5688.5495 1.0847.98412 1.5114l.00608.006.00597.006c.42632.4341.9421.7701 1.51144.9845l.0085.0032c.55873.2167 1.21689.3762 2.23969.423m-4.7558-2.9341-.00375-.0099c-.21709-.5582-.37652-1.216-.42328-2.2389m.42703 2.2488-.01282-.0676m-.41421-2.1812.01675.0882m-.01675-.0882v-.2761m.41421 2.4573-.39746-2.093m.39746 2.093c-.16881-.4459-.34263-1.0682-.39746-2.093m.39746 2.093c.00592.0157.01183.0311.01774.0463.21407.5771.55326 1.0997.9932 1.5301.43029.4399.95265.779 1.52957.9931.46298.1803 1.11536.3688 2.22795.4198 1.12279.0511 1.46968.0615 4.26189.0615 2.7923 0 3.1395-.0104 4.2623-.0615 1.1139-.0511 1.7655-.2406 2.2269-.4195.5772-.214 1.0999-.5533 1.5303-.9934.4398-.4303.7789-.9526.993-1.5295.1803-.463.3688-1.1153.4197-2.2279.0511-1.1228.0616-1.4704.0616-4.2619 0-2.79158-.0105-3.13946-.0616-4.26225-.0513-1.11978-.2425-1.77237-.4223-2.23413-.235-.6067-.533-1.06555-.9911-1.52365-.4572-.45628-.9148-.75448-1.522-.98973-.4634-.18117-1.1164-.37123-2.2345-.42248-.0973-.00442-.1887-.00854-.2764-.01238m-13.41371 13.79452c-.00155-.0289-.003-.0581-.00436-.0877-.00442-.0973-.00855-.1888-.01239-.2766m5.18283-13.43023c1.09221-.04983 1.43058-.06167 4.26173-.06167 2.8312 0 3.1694.01252 4.2613.06168m-8.52303-.00001h.27615m8.24688.00001h-.2754m.2754 0c1.0222.04676 1.6814.20676 2.241.42319l.0077.00294c.5693.21445 1.0851.5504 1.5114.98446l.0059.00603.0061.00592c.4341.42633.77.94224.9843 1.51174l.0036.00963c.2171.55822.3766 1.21606.4233 2.23891m-13.43018-5.18283 7.97148.00001m-7.97148-.00001c.92486-.04044 1.43604-.04914 3.98558-.04914 2.5498 0 3.0609.00871 3.9859.04915m-7.97148-.00001c-.08778.00384-.17928.00797-.2766.01239-1.11398.05106-1.76559.24058-2.22694.41952-.57941.21479-1.1038.55578-1.53516.99828-.45382.4557-.75087.91236-.98537 1.51754-.18119.4634-.37128 1.11674-.42253 2.23494-.00441.09701-.00853.18823-.01235.27574m18.88913 8.24792c-.0467 1.0228-.2062 1.681-.4229 2.2397l-.0032.0085c-.2145.5694-.5504 1.0851-.9845 1.5114l-.0061.006-.0059.0061c-.4267.4346-.9426.7702-1.5115.9841l-.0098.0038c-.5582.2171-1.2161.3765-2.2389.4233m-13.70636-5.459c-.04044-.9249-.04914-1.4361-.04914-3.9856 0-2.55039.0087-3.06086.04917-3.98622m-.00003 7.97182.00003-7.97182m7.75383 8.06802c.536.222 1.1105.3363 1.6907.3363 1.1718 0 2.2956-.4655 3.1242-1.294.8285-.8286 1.294-1.9524 1.294-3.1241 0-1.1718-.4655-2.29558-1.294-3.12415-.8286-.82856-1.9524-1.29405-3.1242-1.29405-.5802 0-1.1547.11428-1.6907.33632-.5361.22203-1.02311.54747-1.43337.95773-.41026.41027-.7357.89732-.95774 1.43336-.22203.53599-.33631 1.11059-.33631 1.69079s.11428 1.1547.33631 1.6907c.22204.5361.54748 1.0231.95774 1.4334.41026.4102.89727.7357 1.43337.9577zm-1.44321-7.21579c.83121-.83118 1.95851-1.29813 3.13391-1.29813 1.1755 0 2.3028.46695 3.134 1.29813s1.2981 1.95849 1.2981 3.13399c0 1.1754-.4669 2.3027-1.2981 3.1339s-1.9585 1.2981-3.134 1.2981c-1.1754 0-2.3027-.4669-3.13391-1.2981-.83118-.8312-1.29813-1.9585-1.29813-3.1339 0-1.1755.46695-2.30281 1.29813-3.13399zm10.06171-2.33002c0 .33644-.1337.6591-.3715.897-.2379.2379-.5606.37155-.897.37155-.3365 0-.6591-.13365-.897-.37155s-.3716-.56056-.3716-.897.1337-.6591.3716-.89699c.2379-.2379.5605-.37155.897-.37155.3364 0 .6591.13365.897.37155.2378.23789.3715.56055.3715.89699z" stroke="#000" stroke-linejoin="round"/></svg>

<?xml version="1.0" encoding="utf-8"?><!-- Uploaded to: SVG Repo, www.svgrepo.com, Generator: SVG Repo Mixer Tools -->
<svg width="800px" height="800px" viewBox="0 0 24 24" fill="none" xmlns="http://www.w3.org/2000/svg">
<path d="M3.06167 7.24464C3.10844 6.22264 3.26846 5.56351 3.48487 5.00402L3.48778 4.99629C3.70223 4.42695 4.03818 3.91119 4.47224 3.48489L4.47833 3.47891L4.48431 3.47282C4.91096 3.0382 5.42691 2.70258 5.99575 2.4887L6.00556 2.48495C6.56378 2.26786 7.22162 2.10843 8.24447 2.06167M3.06167 7.24464C3.0125 8.33659 2.99997 8.67508 2.99997 11.5063C2.99997 14.3381 3.01181 14.6758 3.06164 15.768M3.06167 7.24464L3.06167 7.52008M3.48867 18.0168C3.70255 18.5856 4.03817 19.1015 4.47279 19.5282L4.47887 19.5342L4.48484 19.5402C4.91116 19.9743 5.42694 20.3103 5.99628 20.5247L6.00478 20.5279C6.56351 20.7446 7.22167 20.9041 8.24447 20.9509M3.48867 18.0168L3.48492 18.0069C3.26783 17.4487 3.1084 16.7909 3.06164 15.768M3.48867 18.0168L3.47585 17.9492M3.06164 15.768L3.07839 15.8562M3.06164 15.768L3.06164 15.4919M3.47585 17.9492L3.07839 15.8562M3.47585 17.9492C3.30704 17.5033 3.13322 16.881 3.07839 15.8562M3.47585 17.9492C3.48177 17.9649 3.48768 17.9803 3.49359 17.9955C3.70766 18.5726 4.04685 19.0952 4.48679 19.5256C4.91708 19.9655 5.43944 20.3046 6.01636 20.5187C6.47934 20.699 7.13172 20.8875 8.24431 20.9385C9.3671 20.9896 9.71399 21 12.5062 21C15.2985 21 15.6457 20.9896 16.7685 20.9385C17.8824 20.8874 18.534 20.6979 18.9954 20.519C19.5726 20.305 20.0953 19.9657 20.5257 19.5256C20.9655 19.0953 21.3046 18.573 21.5187 17.9961C21.699 17.5331 21.8875 16.8808 21.9384 15.7682C21.9895 14.6454 22 14.2978 22 11.5063C22 8.71472 21.9895 8.36684 21.9384 7.24405C21.8871 6.12427 21.6959 5.47168 21.5161 5.00992C21.2811 4.40322 20.9831 3.94437 20.525 3.48627C20.0678 3.02999 19.6102 2.73179 19.003 2.49654C18.5396 2.31537 17.8866 2.12531 16.7685 2.07406C16.6712 2.06964 16.5798 2.06552 16.4921 2.06168M3.07839 15.8562C3.07684 15.8273 3.07539 15.7981 3.07403 15.7685C3.06961 15.6712 3.06548 15.5797 3.06164 15.4919M8.24447 2.06167C9.33668 2.01184 9.67505 2 12.5062 2C15.3374 2 15.6756 2.01252 16.7675 2.06168M8.24447 2.06167L8.52062 2.06167M16.7675 2.06168L16.4921 2.06168M16.7675 2.06168C17.7897 2.10844 18.4489 2.26844 19.0085 2.48487L19.0162 2.48781C19.5855 2.70226 20.1013 3.03821 20.5276 3.47227L20.5335 3.4783L20.5396 3.48422C20.9737 3.91055 21.3096 4.42646 21.5239 4.99596L21.5275 5.00559C21.7446 5.56381 21.9041 6.22165 21.9508 7.2445M8.52062 2.06167L16.4921 2.06168M8.52062 2.06167C9.44548 2.02123 9.95666 2.01253 12.5062 2.01253C15.056 2.01253 15.5671 2.02124 16.4921 2.06168M8.52062 2.06167C8.43284 2.06551 8.34134 2.06964 8.24402 2.07406C7.13004 2.12512 6.47843 2.31464 6.01708 2.49358C5.43767 2.70837 4.91328 3.04936 4.48192 3.49186C4.0281 3.94756 3.73105 4.40422 3.49655 5.0094C3.31536 5.4728 3.12527 6.12614 3.07402 7.24434C3.06961 7.34135 3.06549 7.43257 3.06167 7.52008M21.9508 15.768C21.9041 16.7908 21.7446 17.449 21.5279 18.0077L21.5247 18.0162C21.3102 18.5856 20.9743 19.1013 20.5402 19.5276L20.5341 19.5336L20.5282 19.5397C20.1015 19.9743 19.5856 20.3099 19.0167 20.5238L19.0069 20.5276C18.4487 20.7447 17.7908 20.9041 16.768 20.9509M3.06164 15.4919C3.0212 14.567 3.0125 14.0558 3.0125 11.5063C3.0125 8.95591 3.0212 8.44544 3.06167 7.52008M3.06164 15.4919L3.06167 7.52008M10.8155 15.5881C11.3515 15.8101 11.926 15.9244 12.5062 15.9244C13.678 15.9244 14.8018 15.4589 15.6304 14.6304C16.4589 13.8018 16.9244 12.678 16.9244 11.5063C16.9244 10.3345 16.4589 9.21072 15.6304 8.38215C14.8018 7.55359 13.678 7.0881 12.5062 7.0881C11.926 7.0881 11.3515 7.20238 10.8155 7.42442C10.2794 7.64645 9.79239 7.97189 9.38213 8.38215C8.97187 8.79242 8.64643 9.27947 8.42439 9.81551C8.20236 10.3515 8.08808 10.9261 8.08808 11.5063C8.08808 12.0865 8.20236 12.661 8.42439 13.197C8.64643 13.7331 8.97187 14.2201 9.38213 14.6304C9.79239 15.0406 10.2794 15.3661 10.8155 15.5881ZM9.37229 8.37231C10.2035 7.54113 11.3308 7.07418 12.5062 7.07418C13.6817 7.07418 14.809 7.54113 15.6402 8.37231C16.4714 9.20349 16.9383 10.3308 16.9383 11.5063C16.9383 12.6817 16.4714 13.809 15.6402 14.6402C14.809 15.4714 13.6817 15.9383 12.5062 15.9383C11.3308 15.9383 10.2035 15.4714 9.37229 14.6402C8.54111 13.809 8.07416 12.6817 8.07416 11.5063C8.07416 10.3308 8.54111 9.20349 9.37229 8.37231ZM19.434 6.04229C19.434 6.37873 19.3003 6.70139 19.0625 6.93929C18.8246 7.17719 18.5019 7.31084 18.1655 7.31084C17.829 7.31084 17.5064 7.17719 17.2685 6.93929C17.0306 6.70139 16.8969 6.37873 16.8969 6.04229C16.8969 5.70585 17.0306 5.38319 17.2685 5.1453C17.5064 4.9074 17.829 4.77375 18.1655 4.77375C18.5019 4.77375 18.8246 4.9074 19.0625 5.1453C19.3003 5.38319 19.434 5.70585 19.434 6.04229Z" stroke="#000000" stroke-linejoin="round"/>
</svg>
